assets/briefcase.svg

<svg width="24" height="24" viewBox="0 0 24 24" fill="none" xmlns="http://www.w3.org/2000/svg">
<path d="M21.3701 14L21.7101 10.43C21.9701 7.99 21.2701 6 17.0001 6H7.00007C2.73007 6 2.03007 7.99 2.30007 10.43L3.05007 18.43C3.26007 20.39 3.98007 22 8.00007 22H16.0001C20.0201 22 20.7401 20.39 20.9501 18.43" stroke="#00234E" stroke-width="1.5" stroke-miterlimit="10" stroke-linecap="round" stroke-linejoin="round"/>
<path d="M8 6V5.2C8 3.43 8 2 11.2 2H12.8C16 2 16 3.43 16 5.2V6" stroke="#00234E" stroke-width="1.5" stroke-miterlimit="10" stroke-linecap="round" stroke-linejoin="round"/>
<path d="M14 13V14C14 14.01 14 14.01 14 14.02C14 15.11 13.99 16 12 16C10.02 16 10 15.12 10 14.03V13C10 12 10 12 11 12H13C14 12 14 12 14 13Z" stroke="#00234E" stroke-width="1.5" stroke-miterlimit="10" stroke-linecap="round" stroke-linejoin="round"/>
<path d="M21.65 11C19.34 12.68 16.7 13.68 14 14.02" stroke="#00234E" stroke-width="1.5" stroke-miterlimit="10" stroke-linecap="round" stroke-linejoin="round"/>
<path d="M2.62036 11.27C4.87036 12.81 7.41036 13.74 10.0004 14.03" stroke="#00234E" stroke-width="1.5" stroke-miterlimit="10" stroke-linecap="round" stroke-linejoin="round"/>
</svg>

<svg xmlns="http://www.w3.org/2000/svg" width="24" height="24" fill="none" stroke="#00234e" stroke-width="1.5" stroke-miterlimit="10" xmlns:v="https://vecta.io/nano"><path d="M21.37 14l.34-3.57C21.97 7.99 21.27 6 17 6H7c-4.27 0-4.97 1.99-4.7 4.43l.75 8C3.26 20.39 3.98 22 8 22h8c4.02 0 4.74-1.61 4.95-3.57M8 6v-.8C8 3.43 8 2 11.2 2h1.6C16 2 16 3.43 16 5.2V6" stroke-linecap="round" stroke-linejoin="round"/><path d="M14 13v1c0 1.11-.01 2-2 2-1.98 0-2-.88-2-1.97V13c0-1 0-1 1-1h2c1 0 1 0 1 1z" stroke-linejoin="round"/><path d="M21.65 11c-2.31 1.68-4.95 2.68-7.65 3.02M2.62 11.27c2.25 1.54 4.79 2.47 7.38 2.76" stroke-linejoin="round" stroke-linecap="round"/></svg>
